src/assets/SmileasyPaymentPlan/calculator.svg

<svg height="54" viewBox="0 0 54 54" width="54" xmlns="http://www.w3.org/2000/svg" xmlns:xlink="http://www.w3.org/1999/xlink"><filter id="a"><feColorMatrix in="SourceGraphic" type="matrix" values="0 0 0 0 1.000000 0 0 0 0 1.000000 0 0 0 0 1.000000 0 0 0 1.000000 0"/></filter><g fill="none" fill-rule="evenodd" filter="url(#a)" transform="translate(-5 -5)"><path d="m58.6658524 25.5448281v-12.3273589c0-4.34714463-3.6494099-7.88413587-8.1350412-7.88413587h-11.8210918c-2.7936469 0-5.2624133 1.37278251-6.7280397 3.45882569-1.4273574-2.08848585-3.7780594-3.45882569-6.436543-3.45882569h-12.3275471c-4.34721103 0-7.88425627 3.64935422-7.88425627 8.13491697v11.8209114c0 2.7944184 1.37280347 5.2623329 3.45887849 6.727937-2.08851773 1.4273356-3.45887849 3.7780017-3.45887849 6.4364447v12.3281732c0 4.3479588 3.64940994 7.8849501 8.13504117 7.8849501h11.8210918c2.7944612 0 5.2624133-1.3727825 6.7280398-3.4588257 1.4273573 2.0884858 3.7780594 3.4588257 6.4365429 3.4588257h12.3275472c4.3480252 0 7.8850705-3.6493543 7.8850705-8.134917v-11.8225398c0-2.7944185-1.3728035-5.2631472-3.4588785-6.7287513 2.0877035-1.4265213 3.4580642-3.7771875 3.4580642-6.4356305zm-45.4482628 5.0294648c-2.7757338 0-5.034427-2.3710218-5.034427-5.2851312v-11.8209114c0-2.9141095 2.2586932-5.28513121 5.034427-5.28513121h12.3275471c2.773291 0 5.0295415 2.37102171 5.0295415 5.28513121v17.1060426h-17.1063037zm17.3570886 20.2066095c0 2.7756913-2.3710579 5.0351643-5.2852119 5.0351643h-11.8210918c-2.914154 0-5.2852119-2.2586588-5.2852119-5.0351643v-12.3281732c0-2.7724345 2.3710579-5.0294648 5.2852119-5.0294648h17.1063037v17.1068568zm20.2061038-17.357638c2.7757337 0 5.0352412 2.371836 5.0352412 5.2859455v11.8209113c0 2.9141095-2.2586933 5.2851313-5.0352412 5.2851313h-12.3275472c-2.773291 0-5.0295415-2.3710218-5.0295415-5.2851313v-17.1068568h17.1063037zm5.0352412-7.8784363c0 2.7732487-2.371058 5.0286506-5.285212 5.0286506h-17.1063037v-17.1052284-.2507811c0-2.7756913 2.371058-5.03435011 5.2852119-5.03435011h11.8210918c2.914154 0 5.285212 2.25865881 5.285212 5.03435011zm-29.9932317-6.1661221c0 .7865409-.6383617 1.4248929-1.4249146 1.4248929h-10.0379129c-.7865529 0-1.4249147-.638352-1.4249147-1.4248929s.6383618-1.4248929 1.4249147-1.4248929h10.0370986c.7873672 0 1.4257289.6375378 1.4257289 1.4248929zm12.354417 28.1965945c0-.7873551.6375475-1.4248929 1.4249146-1.4248929h10.0362845c.7873671 0 1.4249146.6375378 1.4249146 1.4248929s-.6375475 1.4248929-1.4249146 1.4248929h-10.0362845c-.7873671 0-1.4249146-.6375378-1.4249146-1.4248929zm0-5.9120841c0-.7873551.6375475-1.4248929 1.4249146-1.4248929h10.0362845c.7873671 0 1.4249146.6375378 1.4249146 1.4248929s-.6375475 1.4248929-1.4249146 1.4248929h-10.0362845c-.7873671 0-1.4249146-.6375378-1.4249146-1.4248929zm12.8861137-22.2845104c0 .7865409-.6375475 1.4248929-1.4249146 1.4248929h-3.5932276v3.5939869c0 .7865409-.6375475 1.4248929-1.4249147 1.4248929-.7873671 0-1.4249146-.638352-1.4249146-1.4248929v-3.5939869h-3.5932276c-.7873671 0-1.4249146-.638352-1.4249146-1.4248929s.6375475-1.4248929 1.4249146-1.4248929h3.5932276v-3.5931727c0-.7865409.6375475-1.4248929 1.4249146-1.4248929.7873672 0 1.4249147.638352 1.4249147 1.4248929v3.5931727h3.5932276c.7873671 0 1.4249146.6375378 1.4249146 1.4248929zm-27.1287461 22.6997649-2.5404193 2.5411947 2.5412335 2.5411946c.5569381.5569296.5569381 1.4582761 0 2.0152057-.278469.2784648-.6432472.4176971-1.0072111.4176971s-.7295563-.1392323-1.0072111-.4176971l-2.5420477-2.5420089-2.5412334 2.5411946c-.2784691.2784648-.6432472.4176972-1.0072111.4176972s-.7295563-.1392324-1.0072111-.4176972c-.5569381-.5569295-.5569381-1.458276 0-2.0152056l2.5412335-2.5411947-2.5412335-2.5411946c-.5569381-.5569296-.5569381-1.4582761 0-2.0152057.556938-.5569295 1.4582983-.5569295 2.0152364 0l2.5412335 2.5411947 2.5412334-2.5411947c.5569381-.5569295 1.4582984-.5569295 2.0152364 0 .5569381.5569296.5553096 1.4599046-.0016284 2.0160199z" fill="#000"/></g></svg>

<?xml version="1.0" encoding="UTF-8"?>
<svg width="54px" height="54px" viewBox="0 0 54 54" version="1.1" xmlns="http://www.w3.org/2000/svg" xmlns:xlink="http://www.w3.org/1999/xlink">
    <title>Icons/calculator</title>
    <defs>
        <filter id="filter-1">
            <feColorMatrix in="SourceGraphic" type="matrix" values="0 0 0 0 1.000000 0 0 0 0 1.000000 0 0 0 0 1.000000 0 0 0 1.000000 0"></feColorMatrix>
        </filter>
    </defs>
    <g id="Design" stroke="none" stroke-width="1" fill="none" fill-rule="evenodd">
        <g id="Smileeasy-Payment-Plan" transform="translate(-1243.000000, -4793.000000)">
            <g id="How-it-works" transform="translate(3.000000, 3889.000000)">
                <g id="calculation" transform="translate(463.000000, 868.000000)">
                    <g id="Icons/calculator" transform="translate(772.000000, 31.000000)" filter="url(#filter-1)">
                        <g>
                            <path d="M58.6658524,25.5448281 L58.6658524,13.2174692 C58.6658524,8.87032457 55.0164425,5.33333333 50.5308112,5.33333333 L38.7097194,5.33333333 C35.9160725,5.33333333 33.4473061,6.70611584 31.9816797,8.79215902 C30.5543223,6.70367317 28.2036203,5.33333333 25.5451367,5.33333333 L13.2175896,5.33333333 C8.87037857,5.33333333 5.33333333,8.98268755 5.33333333,13.4682503 L5.33333333,25.2891617 C5.33333333,28.0835801 6.7061368,30.5514946 8.79221182,32.0170987 C6.70369409,33.4444343 5.33333333,35.7951004 5.33333333,38.4535434 L5.33333333,50.7817166 C5.33333333,55.1296754 8.98274327,58.6666667 13.4683745,58.6666667 L25.2894663,58.6666667 C28.0839275,58.6666667 30.5518796,57.2938842 32.0175061,55.207841 C33.4448634,57.2963268 35.7955655,58.6666667 38.454049,58.6666667 L50.7815962,58.6666667 C55.1296214,58.6666667 58.6666667,55.0173124 58.6666667,50.5317497 L58.6666667,38.7092099 C58.6666667,35.9147914 57.2938632,33.4460627 55.2077882,31.9804586 C57.2954917,30.5539373 58.6658524,28.2032711 58.6658524,25.5448281 Z M13.2175896,30.5742929 C10.4418558,30.5742929 8.1831626,28.2032711 8.1831626,25.2891617 L8.1831626,13.4682503 C8.1831626,10.5541408 10.4418558,8.18311909 13.2175896,8.18311909 L25.5451367,8.18311909 C28.3184277,8.18311909 30.5746782,10.5541408 30.5746782,13.4682503 L30.5746782,30.5742929 L13.4683745,30.5742929 L13.2175896,30.5742929 Z M30.5746782,50.7809024 C30.5746782,53.5565937 28.2036203,55.8160667 25.2894663,55.8160667 L13.4683745,55.8160667 C10.5542205,55.8160667 8.1831626,53.5574079 8.1831626,50.7809024 L8.1831626,38.4527292 C8.1831626,35.6802947 10.5542205,33.4232644 13.4683745,33.4232644 L30.5746782,33.4232644 L30.5746782,50.5301212 L30.5746782,50.7809024 Z M50.780782,33.4232644 C53.5565157,33.4232644 55.8160232,35.7951004 55.8160232,38.7092099 L55.8160232,50.5301212 C55.8160232,53.4442307 53.5573299,55.8152525 50.780782,55.8152525 L38.4532348,55.8152525 C35.6799438,55.8152525 33.4236933,53.4442307 33.4236933,50.5301212 L33.4236933,33.4232644 L50.529997,33.4232644 L50.780782,33.4232644 L50.780782,33.4232644 Z M55.8160232,25.5448281 C55.8160232,28.3180768 53.4449652,30.5734787 50.5308112,30.5734787 L33.4245075,30.5734787 L33.4245075,13.4682503 L33.4245075,13.2174692 C33.4245075,10.4417779 35.7955655,8.18311909 38.7097194,8.18311909 L50.5308112,8.18311909 C53.4449652,8.18311909 55.8160232,10.4417779 55.8160232,13.2174692 L55.8160232,25.5448281 Z M25.8227915,19.378706 C25.8227915,20.1652469 25.1844298,20.8035989 24.3978769,20.8035989 L14.359964,20.8035989 C13.5734111,20.8035989 12.9350493,20.1652469 12.9350493,19.378706 C12.9350493,18.5921651 13.5734111,17.9538131 14.359964,17.9538131 L24.3970626,17.9538131 C25.1844298,17.9538131 25.8227915,18.5913509 25.8227915,19.378706 Z M38.1772085,47.5753005 C38.1772085,46.7879454 38.814756,46.1504076 39.6021231,46.1504076 L49.6384076,46.1504076 C50.4257747,46.1504076 51.0633222,46.7879454 51.0633222,47.5753005 C51.0633222,48.3626556 50.4257747,49.0001934 49.6384076,49.0001934 L39.6021231,49.0001934 C38.814756,49.0001934 38.1772085,48.3626556 38.1772085,47.5753005 Z M38.1772085,41.6632164 C38.1772085,40.8758613 38.814756,40.2383235 39.6021231,40.2383235 L49.6384076,40.2383235 C50.4257747,40.2383235 51.0633222,40.8758613 51.0633222,41.6632164 C51.0633222,42.4505715 50.4257747,43.0881093 49.6384076,43.0881093 L39.6021231,43.0881093 C38.814756,43.0881093 38.1772085,42.4505715 38.1772085,41.6632164 Z M51.0633222,19.378706 C51.0633222,20.1652469 50.4257747,20.8035989 49.6384076,20.8035989 L46.04518,20.8035989 L46.04518,24.3975858 C46.04518,25.1841267 45.4076325,25.8224787 44.6202653,25.8224787 C43.8328982,25.8224787 43.1953507,25.1841267 43.1953507,24.3975858 L43.1953507,20.8035989 L39.6021231,20.8035989 C38.814756,20.8035989 38.1772085,20.1652469 38.1772085,19.378706 C38.1772085,18.5921651 38.814756,17.9538131 39.6021231,17.9538131 L43.1953507,17.9538131 L43.1953507,14.3606404 C43.1953507,13.5740995 43.8328982,12.9357475 44.6202653,12.9357475 C45.4076325,12.9357475 46.04518,13.5740995 46.04518,14.3606404 L46.04518,17.9538131 L49.6384076,17.9538131 C50.4257747,17.9538131 51.0633222,18.5913509 51.0633222,19.378706 Z M23.9345761,42.0784709 L21.3941568,44.6196656 L23.9353903,47.1608602 C24.4923284,47.7177898 24.4923284,48.6191363 23.9353903,49.1760659 C23.6569213,49.4545307 23.2921431,49.593763 22.9281792,49.593763 C22.5642153,49.593763 22.1986229,49.4545307 21.9209681,49.1760659 L19.3789204,46.634057 L16.837687,49.1752516 C16.5592179,49.4537164 16.1944398,49.5929488 15.8304759,49.5929488 C15.466512,49.5929488 15.1009196,49.4537164 14.8232648,49.1752516 C14.2663267,48.6183221 14.2663267,47.7169756 14.8232648,47.160046 L17.3644983,44.6188513 L14.8232648,42.0776567 C14.2663267,41.5207271 14.2663267,40.6193806 14.8232648,40.062451 C15.3802028,39.5055215 16.2815631,39.5055215 16.8385012,40.062451 L19.3797347,42.6036457 L21.9209681,40.062451 C22.4779062,39.5055215 23.3792665,39.5055215 23.9362045,40.062451 C24.4931426,40.6193806 24.4915141,41.5223556 23.9345761,42.0784709 Z" id="Shape" fill="#000000"></path>
                        </g>
                    </g>
                </g>
            </g>
        </g>
    </g>
</svg>
